_/img/starknet-logo-dark.svg

<svg width="146" height="32" viewBox="0 0 146 32" fill="none" xmlns="http://www.w3.org/2000/svg">
<path fill-rule="evenodd" clip-rule="evenodd" d="M2.00002 16C2.00002 24.8366 9.16337 32 18 32C26.8367 32 34.0005 24.8366 34.0005 16C34.0005 7.16335 26.8367 0 18 0C9.16337 0 2.00002 7.16335 2.00002 16Z" fill="#0C0C4F"/>
<path fill-rule="evenodd" clip-rule="evenodd" d="M18 31.1899C9.6108 31.1899 2.81016 24.3892 2.81016 16C2.81016 7.61078 9.6108 0.810138 18 0.810138C26.3893 0.810138 33.1903 7.61081 33.1903 16C33.1903 24.3892 26.3893 31.1899 18 31.1899ZM18 32C9.16337 32 2.00002 24.8366 2.00002 16C2.00002 7.16335 9.16337 0 18 0C26.8367 0 34.0005 7.16335 34.0005 16C34.0005 24.8366 26.8367 32 18 32Z" fill="#EC796B"/>
<path fill-rule="evenodd" clip-rule="evenodd" d="M30.3243 11.5203C29.8188 10.9551 29.0298 10.6368 28.2628 10.5063C27.4896 10.3809 26.679 10.3925 25.9157 10.5281C24.3715 10.7894 22.9685 11.4288 21.7448 12.2177C21.1094 12.6048 20.5675 13.0528 20.0061 13.509C19.7356 13.7397 19.4889 13.9854 19.2321 14.2276L18.5303 14.9259C17.7677 15.7231 17.016 16.4491 16.2888 17.0509C15.5585 17.6499 14.8759 18.1049 14.2031 18.4226C13.5307 18.7419 12.8113 18.9297 11.8736 18.9598C10.9441 18.9926 9.84444 18.8248 8.66816 18.5479C7.48555 18.2723 6.2437 17.8793 4.85596 17.5412C5.34017 18.8846 6.06934 20.0717 7.00551 21.1568C7.95267 22.2232 9.13538 23.1951 10.6547 23.8342C12.1521 24.4876 14.0339 24.7221 15.7934 24.3683C17.5575 24.0287 19.1057 23.2124 20.357 22.2683C21.6116 21.3145 22.6266 20.2281 23.4824 19.0986C23.7186 18.7865 23.8435 18.6118 24.0144 18.3679L24.4869 17.6681C24.8153 17.2352 25.1141 16.7423 25.4392 16.3134C26.0763 15.4151 26.7045 14.5179 27.4345 13.6912C27.8019 13.272 28.1892 12.8709 28.6466 12.4855C28.8747 12.2974 29.1212 12.1133 29.3942 11.9475C29.6713 11.7686 29.9639 11.6286 30.3243 11.5203Z" fill="#EC796B"/>
<path fill-rule="evenodd" clip-rule="evenodd" d="M24.2954 22.906C24.2954 23.9125 25.1117 24.7289 26.1182 24.7289C27.1247 24.7289 27.94 23.9125 27.94 22.906C27.94 21.8996 27.1247 21.0832 26.1182 21.0832C25.1117 21.0832 24.2954 21.8996 24.2954 22.906Z" fill="#EC796B"/>
<path fill-rule="evenodd" clip-rule="evenodd" d="M30.3243 11.5203C29.7811 10.15 28.7716 8.99647 27.4165 8.14527C26.0696 7.30343 24.1989 6.8738 22.3452 7.24003C21.4294 7.41714 20.5422 7.75813 19.7636 8.21222C18.9886 8.6645 18.294 9.20895 17.6928 9.79304C17.3926 10.0861 17.1201 10.3917 16.8495 10.6991L16.148 11.5936L15.0644 13.0333C13.6831 14.8858 12.1955 17.0568 9.75444 17.7001C7.35797 18.3316 6.31859 17.7723 4.85596 17.5412C5.12339 18.2317 5.45467 18.9022 5.90377 19.4921C6.34451 20.0939 6.86508 20.6592 7.51231 21.1438C7.83939 21.3765 8.18471 21.6061 8.56824 21.801C8.95002 21.9891 9.36174 22.1548 9.80121 22.2795C10.6753 22.5191 11.6595 22.603 12.6123 22.4742C13.5656 22.347 14.4768 22.0448 15.2733 21.6436C16.0757 21.2461 16.7746 20.7621 17.3988 20.2513C18.6394 19.221 19.6044 18.0826 20.4195 16.9319C20.8295 16.3566 21.2017 15.7704 21.5459 15.1841L21.9511 14.486C22.0749 14.282 22.2002 14.0766 22.3274 13.8854C22.8407 13.1172 23.3428 12.5013 23.9527 12.0389C24.5541 11.5646 25.3914 11.2142 26.5105 11.1328C27.6249 11.0504 28.9113 11.2026 30.3243 11.5203Z" fill="#FAFAFA"/>
<path fill-rule="evenodd" clip-rule="evenodd" d="M10.9429 12.2306L11.3378 11.0103C11.4181 10.7622 11.614 10.569 11.8631 10.4929L13.0893 10.1158C13.259 10.064 13.2604 9.82451 13.0921 9.76992L11.8714 9.37495C11.6236 9.29467 11.4305 9.09879 11.3539 8.8497L10.9773 7.6235C10.9254 7.45422 10.686 7.45239 10.6314 7.6212L10.2364 8.84144C10.1561 9.08916 9.96026 9.28229 9.71117 9.35889L8.48497 9.73552C8.31524 9.78781 8.3134 10.0268 8.48222 10.0814L9.70291 10.4764C9.95063 10.5567 10.1438 10.753 10.2204 11.0021L10.597 12.2278C10.6488 12.3976 10.8883 12.3994 10.9429 12.2306Z" fill="#FAFAFA"/>
<path d="M141.817 11.156V9.31541C141.817 9.24244 141.758 9.18328 141.685 9.18328H131.198C131.125 9.18328 131.065 9.24244 131.065 9.31541V11.156H135.328V23.063H137.555V11.156H141.817Z" fill="white"/>
<path d="M120.105 9.18328C120.032 9.18328 119.973 9.24244 119.973 9.31541V22.9308C119.973 23.0038 120.032 23.063 120.105 23.063H128.93C129.003 23.063 129.062 23.0038 129.062 22.9308V21.1098H122.2V16.7478H127.869V14.8337H122.2V11.1364H128.573V9.31541C128.573 9.24244 128.514 9.18328 128.441 9.18328H120.105Z" fill="white"/>
<path d="M114.987 22.9822L115.035 23.063H116.746C116.819 23.063 116.878 23.0038 116.878 22.9308V9.31541C116.878 9.24244 116.819 9.18328 116.746 9.18328H114.69V18.7957C114.333 18.2275 113.919 17.6021 113.447 16.9195C112.846 16.0311 112.2 15.1299 111.508 14.2159C110.829 13.2889 110.137 12.3944 109.431 11.5325C108.739 10.6568 108.084 9.89091 107.468 9.23532L107.419 9.18328H105.809C105.736 9.18328 105.677 9.24244 105.677 9.31541V22.9308C105.677 23.0038 105.736 23.063 105.809 23.063H107.865V12.7655C108.146 13.0975 108.445 13.4653 108.762 13.8692C109.191 14.4149 109.633 14.9999 110.088 15.6241L110.089 15.6248L110.089 15.6254C110.544 16.2363 110.999 16.8732 111.454 17.5363L111.455 17.5372L111.455 17.5381C111.924 18.2015 112.372 18.8583 112.802 19.5086L112.802 19.5092L112.802 19.5098C113.231 20.1466 113.627 20.7636 113.991 21.3609L113.992 21.362L113.992 21.3631C114.37 21.9618 114.701 22.5014 114.987 22.9822Z" fill="white"/>
<path d="M102.987 9.45973L103.038 9.40444C103.115 9.3196 103.055 9.18328 102.94 9.18328H100.502L100.453 9.2406C100.129 9.61601 99.7268 10.0572 99.2457 10.5643C98.777 11.0589 98.2757 11.5798 97.7418 12.1267C97.2081 12.6735 96.6679 13.2202 96.1211 13.767C95.6838 14.1939 95.2757 14.5874 94.8969 14.9475V9.18328H92.8022C92.7292 9.18328 92.67 9.24244 92.67 9.31541V22.9308C92.67 23.0038 92.7292 23.063 92.8022 23.063H94.8969V16.7663C95.3566 17.0674 95.8266 17.4196 96.3069 17.8234L96.3076 17.824L96.3083 17.8246C96.89 18.3029 97.4591 18.8267 98.0156 19.3962L98.0169 19.3975L98.0183 19.3989C98.5873 19.9549 99.1239 20.5433 99.6283 21.1641L99.6289 21.1647L99.6294 21.1654C100.134 21.7732 100.579 22.3803 100.966 22.9867L101.015 23.063H103.392C103.493 23.063 103.557 22.9531 103.506 22.865L103.478 22.8155C103.121 22.1948 102.673 21.5432 102.135 20.8608C101.611 20.1792 101.048 19.511 100.445 18.8561C99.8424 18.201 99.2265 17.5851 98.5973 17.0083C98.0273 16.4858 97.4828 16.0372 96.9637 15.6632C97.4052 15.2322 97.8733 14.7695 98.3678 14.275C98.9157 13.7271 99.4636 13.1726 100.012 12.6117C100.572 12.0377 101.107 11.4832 101.616 10.9482L101.617 10.9475L101.618 10.9468C102.126 10.399 102.583 9.90335 102.987 9.45973Z" fill="white"/>
<path fill-rule="evenodd" clip-rule="evenodd" d="M80.0294 9.07925C79.9564 9.07927 79.8973 9.13842 79.8973 9.21138V22.9392C79.8973 23.0121 79.9565 23.0713 80.0294 23.0713H81.9164V18.024H84.6729C84.9829 18.3953 85.2854 18.7838 85.5803 19.1895L85.5814 19.1911L85.5826 19.1926C86.0651 19.8251 86.5109 20.4851 86.9201 21.1723L86.9205 21.1731L86.921 21.1738C87.2916 21.782 87.6151 22.3827 87.8915 22.9759L87.936 23.0713H90.1689C90.2646 23.0713 90.3285 22.9728 90.2887 22.8857C90.0319 22.3229 89.7536 21.7719 89.4445 21.2351C89.0245 20.4849 88.5637 19.7421 88.0624 19.0069C87.7759 18.5867 87.4832 18.1785 87.1844 17.7823C88.0173 17.5276 88.6764 17.0672 89.153 16.3988L89.1534 16.3983C89.7255 15.5894 90.0091 14.6381 90.0091 13.5516C90.0091 12.805 89.8792 12.1218 89.6166 11.5045C89.3528 10.8782 88.9561 10.3588 88.4275 9.94898C87.9025 9.53704 87.2558 9.27492 86.494 9.15737C86.3164 9.12462 86.1329 9.105 85.9437 9.09834C85.759 9.08565 85.5978 9.07917 85.4608 9.07917C84.8818 9.07917 84.3029 9.07911 83.7239 9.07905C82.4924 9.07892 81.2609 9.07884 80.0294 9.07925ZM87.9521 13.5516C87.9521 13.9122 87.8921 14.2671 87.7715 14.6168C87.6536 14.9527 87.4652 15.2472 87.2049 15.5017C86.9582 15.7426 86.6329 15.9135 86.2208 16.0091C86.0903 16.0388 85.9496 16.0598 85.7986 16.0719L85.7984 16.0719L85.7981 16.0719C85.6497 16.0843 85.5184 16.0903 85.4039 16.0903H81.9164V11.0129H85.4039C85.5184 11.0129 85.6497 11.0189 85.7981 11.0313L85.8016 11.0316L85.8052 11.0317C85.9521 11.0376 86.0882 11.0581 86.2143 11.0924L86.2184 11.0936L86.2226 11.0945C86.6332 11.1837 86.9574 11.354 87.2035 11.6001L87.2042 11.6008L87.2049 11.6015C87.4648 11.8555 87.6533 12.1529 87.7713 12.4954L87.7715 12.4958L87.7716 12.4963C87.892 12.8393 87.9521 13.1909 87.9521 13.5516Z" fill="white"/>
<path fill-rule="evenodd" clip-rule="evenodd" d="M74.943 21.2305L74.9432 21.2311L74.9434 21.2316C75.1394 21.7935 75.3484 22.3684 75.5705 22.9562L75.6108 23.063H77.8447C77.9363 23.063 78.0002 22.9718 77.9688 22.8857C77.4809 21.5451 76.9883 20.2062 76.4858 18.8709C76.0293 17.6448 75.5792 16.4836 75.1355 15.3875C74.7048 14.2913 74.2741 13.247 73.8432 12.2548C73.411 11.2463 72.9563 10.2478 72.4824 9.25825C72.4605 9.21242 72.4142 9.18328 72.3633 9.18328H70.5817C70.5309 9.18328 70.4845 9.21242 70.4626 9.25825C69.9888 10.2479 69.534 11.2464 69.1017 12.2549C68.6711 13.2468 68.2339 14.2907 67.7903 15.3866L67.79 15.3874L67.7897 15.3882C67.3592 16.484 66.9157 17.6449 66.4592 18.8709C65.9567 20.2061 65.4642 21.5451 64.9762 22.8857C64.9449 22.9718 65.0087 23.063 65.1004 23.063H67.2388L67.2807 23.0629L67.3297 23.0103C67.8455 22.4564 68.4221 21.9129 69.0596 21.3798L69.0603 21.3793L69.0609 21.3787C69.7009 20.8323 70.3682 20.3255 71.0627 19.8583L71.0643 19.8573L71.0658 19.8562C71.75 19.3727 72.4385 18.939 73.1314 18.5547L73.1322 18.5542L73.133 18.5538C73.3825 18.4118 73.6282 18.2795 73.8701 18.1568L74.3375 19.4921L74.3378 19.4931C74.5461 20.0787 74.7478 20.6579 74.943 21.2305ZM72.54 14.6467L72.5404 14.6479L72.5409 14.649C72.729 15.1253 72.9172 15.6096 73.1054 16.1018C73.0913 16.108 73.0769 16.1145 73.0624 16.1211C72.4002 16.4227 71.6886 16.8125 70.9276 17.2898C70.1991 17.7467 69.4763 18.2432 68.7594 18.779L69.0629 17.912C69.4645 16.7852 69.8662 15.6971 70.2677 14.6478C70.637 13.7015 71.0216 12.7913 71.4214 11.9172C71.8095 12.791 72.1824 13.7008 72.54 14.6467Z" fill="white"/>
<path d="M65.5214 11.156V9.31541C65.5214 9.24244 65.4622 9.18328 65.3892 9.18328H54.9021C54.8291 9.18328 54.77 9.24244 54.77 9.31541V11.156H59.0322V22.9308C59.0322 23.0038 59.0914 23.063 59.1644 23.063H61.127C61.1999 23.063 61.2591 23.0038 61.2591 22.9308V11.156H65.5214Z" fill="white"/>
<path d="M45.1473 22.8941L45.1469 22.8939C44.3392 22.5496 43.6673 22.0581 43.1347 21.419L43.1339 21.418L43.1335 21.4175C42.6062 20.7701 42.2638 20.0069 42.1047 19.132C42.0968 19.0883 42.1068 19.0431 42.1325 19.0069C42.1583 18.9706 42.1976 18.9462 42.2415 18.9393L44.0178 18.6594C44.1019 18.6461 44.1823 18.6989 44.2035 18.7813C44.4193 19.6201 44.8637 20.2712 45.5374 20.743C46.221 21.2109 47.0273 21.4473 47.963 21.4473C48.57 21.4473 49.1124 21.3535 49.5926 21.1689C50.0784 20.9782 50.4554 20.7107 50.7307 20.3696C51.0014 20.0341 51.1381 19.6369 51.1381 19.17C51.1381 18.8802 51.0868 18.643 50.9914 18.4523C50.9906 18.4506 50.9897 18.4488 50.9889 18.4471C50.8961 18.244 50.7664 18.0743 50.5994 17.9361C50.5978 17.9348 50.5963 17.9334 50.5947 17.932C50.4271 17.7823 50.2346 17.6558 50.0164 17.5527C49.7931 17.4473 49.5603 17.3604 49.318 17.292L49.3158 17.2914L45.7724 16.239C45.378 16.1207 44.9966 15.9727 44.6283 15.7951L44.6273 15.7947L44.6261 15.7941C44.2522 15.6071 43.9172 15.3762 43.622 15.1011L43.6211 15.1002L43.6206 15.0997C43.3212 14.814 43.0838 14.4743 42.9081 14.0824L42.9077 14.0815C42.7292 13.6763 42.6427 13.2054 42.6427 12.673C42.6427 11.8194 42.8633 11.0823 43.3118 10.4707L43.312 10.4705C43.7625 9.8586 44.3698 9.39365 45.1283 9.0743C45.8856 8.75543 46.7353 8.60105 47.6746 8.60762C48.6267 8.61419 49.483 8.78495 50.2404 9.12367C51.0036 9.45564 51.6367 9.93495 52.1367 10.5615C52.6443 11.1893 52.9828 11.9385 53.1547 12.8049C53.1634 12.8485 53.1541 12.8938 53.1289 12.9305C53.1038 12.9672 53.0649 12.9921 53.0211 12.9998L51.1965 13.3184C51.1533 13.3259 51.1088 13.3159 51.0729 13.2906C51.037 13.2653 51.0127 13.2267 51.0053 13.1834C50.9132 12.6428 50.7086 12.1842 50.3939 11.8031L50.3921 11.8009C50.081 11.4104 49.6908 11.1113 49.2189 10.9029L49.2173 10.9022C48.7444 10.6873 48.2235 10.5757 47.6523 10.5695C47.1048 10.5632 46.6153 10.6503 46.1816 10.8275C45.7466 11.0052 45.4071 11.2504 45.1567 11.5604L45.1557 11.5616C44.9101 11.8598 44.7879 12.2022 44.7879 12.5957C44.7879 12.9865 44.8993 13.2879 45.1101 13.5157C45.3377 13.755 45.6174 13.9483 45.9519 14.0945C46.3064 14.24 46.6507 14.36 46.9847 14.4545L46.9855 14.4547L49.6297 15.2171C49.938 15.3024 50.29 15.4199 50.6853 15.5689C51.0991 15.7224 51.498 15.9388 51.8821 16.2168C52.2774 16.4964 52.6021 16.8698 52.8571 17.3328C53.1192 17.8019 53.2448 18.3853 53.2448 19.0735C53.2448 19.7653 53.105 20.3871 52.8211 20.9348C52.5455 21.479 52.1587 21.9361 51.6625 22.305L51.6613 22.3058C51.1679 22.6659 50.5966 22.9377 49.9496 23.1226C49.3025 23.314 48.6111 23.4092 47.8761 23.4092C46.8725 23.4092 45.9621 23.2386 45.1473 22.8941Z" fill="white"/>
</svg>

<svg width="146" height="32" viewBox="0 0 146 32" fill="none" xmlns="http://www.w3.org/2000/svg"><path fill-rule="evenodd" clip-rule="evenodd" d="M2 16c0 8.837 7.163 16 16 16s16-7.163 16-16S26.838 0 18 0 2 7.163 2 16z" fill="#0C0C4F"/><path fill-rule="evenodd" clip-rule="evenodd" d="M18 31.19c-8.39 0-15.19-6.8-15.19-15.19S9.61.81 18 .81 33.19 7.61 33.19 16 26.39 31.19 18 31.19zm0 .81C9.163 32 2 24.837 2 16S9.163 0 18 0s16 7.163 16 16-7.163 16-16 16z" fill="#EC796B"/><path fill-rule="evenodd" clip-rule="evenodd" d="M30.324 11.52c-.505-.565-1.294-.883-2.061-1.014a7.083 7.083 0 00-2.347.022c-1.544.261-2.948.9-4.171 1.69-.636.387-1.178.835-1.739 1.291-.27.23-.517.476-.774.719l-.702.698c-.762.797-1.514 1.523-2.241 2.125-.73.599-1.413 1.054-2.086 1.372-.672.319-1.392.507-2.33.537-.929.033-2.029-.135-3.205-.412-1.182-.276-2.424-.669-3.812-1.007.484 1.344 1.213 2.53 2.15 3.616.947 1.066 2.13 2.038 3.649 2.677 1.497.654 3.379.888 5.138.534 1.765-.34 3.313-1.156 4.564-2.1 1.255-.954 2.27-2.04 3.125-3.17.237-.311.361-.486.532-.73l.473-.7c.328-.433.627-.926.952-1.355.637-.898 1.265-1.795 1.995-2.622.368-.419.755-.82 1.213-1.206.228-.188.474-.372.747-.537.277-.18.57-.32.93-.428zm-6.029 11.386a1.823 1.823 0 103.647 0 1.823 1.823 0 00-3.647 0z" fill="#EC796B"/><path fill-rule="evenodd" clip-rule="evenodd" d="M30.324 11.52c-.543-1.37-1.552-2.524-2.908-3.375-1.346-.842-3.217-1.271-5.07-.905a8.305 8.305 0 00-2.582.972c-.775.453-1.47.997-2.071 1.581-.3.293-.573.599-.844.906l-.701.895-1.084 1.44c-1.38 1.852-2.869 4.023-5.31 4.666-2.396.632-3.435.072-4.898-.159.267.69.599 1.361 1.048 1.951.44.602.961 1.167 1.608 1.652.327.233.673.462 1.056.657.382.188.794.354 1.233.479.874.24 1.858.323 2.811.194a8.458 8.458 0 002.661-.83A11.213 11.213 0 0017.4 20.25c1.24-1.03 2.205-2.168 3.02-3.32.41-.574.783-1.16 1.127-1.747l.405-.698c.124-.204.25-.41.376-.6.514-.769 1.016-1.385 1.626-1.847.601-.474 1.438-.825 2.558-.906 1.114-.083 2.4.07 3.813.387zm-19.381.71l.395-1.22a.797.797 0 01.525-.517l1.226-.377c.17-.052.171-.291.003-.346l-1.22-.395a.799.799 0 01-.518-.525l-.377-1.226a.181.181 0 00-.346-.003l-.395 1.22a.799.799 0 01-.525.518l-1.226.377a.181.181 0 00-.003.345l1.22.395a.8.8 0 01.518.526l.377 1.226c.052.17.291.171.346.003z" fill="#FAFAFA"/><path d="M141.817 11.156v-1.84a.132.132 0 00-.132-.133h-10.487a.133.133 0 00-.133.132v1.841h4.263v11.907h2.227V11.156h4.262zm-21.712-1.973a.132.132 0 00-.132.132v13.616c0 .073.059.132.132.132h8.825c.073 0 .132-.06.132-.132V21.11H122.2v-4.362h5.669v-1.914H122.2v-3.698h6.373v-1.82a.132.132 0 00-.132-.133h-8.336zm-5.118 13.799l.048.081h1.711c.073 0 .132-.06.132-.132V9.315a.132.132 0 00-.132-.132h-2.056v9.613a51.516 51.516 0 00-1.243-1.877 62.502 62.502 0 00-1.939-2.703 62.725 62.725 0 00-2.077-2.683 35.628 35.628 0 00-1.963-2.298l-.049-.052h-1.61a.132.132 0 00-.132.132v13.616c0 .073.059.132.132.132h2.056V12.766c.281.332.58.7.897 1.103.429.546.871 1.13 1.326 1.755h.001v.001c.455.611.91 1.248 1.365 1.911l.001.001v.001c.469.663.917 1.32 1.347 1.97v.001a48.37 48.37 0 011.189 1.852l.001.001v.001c.378.599.709 1.138.995 1.62zm-12-13.522l.051-.056a.132.132 0 00-.098-.22h-2.438l-.049.057a38.87 38.87 0 01-1.207 1.323c-.469.495-.97 1.016-1.504 1.563-.534.546-1.074 1.093-1.62 1.64-.438.427-.846.82-1.225 1.18V9.183h-2.095a.132.132 0 00-.132.132v13.616c0 .073.06.132.132.132h2.095v-6.297c.46.301.93.654 1.41 1.057v.001h.001a21.612 21.612 0 011.708 1.572v.002h.002a20.835 20.835 0 011.61 1.766l.001.001c.505.608.95 1.215 1.337 1.822l.049.076h2.377c.101 0 .165-.11.114-.198l-.028-.05a16.394 16.394 0 00-1.343-1.954 30.697 30.697 0 00-3.538-3.853 18.115 18.115 0 00-1.633-1.345 207.583 207.583 0 003.048-3.051 184.4 184.4 0 001.604-1.664h.001l.001-.001c.508-.548.965-1.044 1.369-1.487z" fill="#fff"/><path fill-rule="evenodd" clip-rule="evenodd" d="M80.03 9.08a.132.132 0 00-.133.131V22.94c0 .073.06.132.132.132h1.887v-5.047h2.757c.31.371.612.76.907 1.165l.001.002.002.002c.482.632.928 1.292 1.337 1.98h.001c.37.609.694 1.21.97 1.803l.045.095h2.233a.13.13 0 00.12-.185 19.629 19.629 0 00-.844-1.65 30.81 30.81 0 00-2.261-3.454c.833-.254 1.492-.715 1.969-1.383.572-.81.856-1.76.856-2.847 0-.747-.13-1.43-.392-2.047a3.802 3.802 0 00-1.19-1.556c-.525-.412-1.171-.674-1.933-.792a3.761 3.761 0 00-.55-.059 7.178 7.178 0 00-.483-.019h-5.432zm7.922 4.472c0 .36-.06.715-.18 1.065-.118.336-.307.63-.567.885-.247.24-.572.412-.984.507-.13.03-.271.05-.422.063-.15.012-.28.018-.395.018h-3.488v-5.077h3.488c.114 0 .246.006.394.018h.007c.147.007.283.027.41.061l.003.002h.005c.41.09.734.26.98.506h.001v.002c.26.253.45.55.567.893v.001c.121.343.181.695.181 1.056zM74.943 21.23v.001c.196.563.405 1.137.627 1.725l.04.107h2.235a.132.132 0 00.124-.177c-.488-1.34-.98-2.68-1.483-4.015a132.654 132.654 0 00-1.35-3.483 96.035 96.035 0 00-1.293-3.133 78.83 78.83 0 00-1.36-2.997.132.132 0 00-.12-.075h-1.781a.136.136 0 00-.12.075 79.91 79.91 0 00-1.36 2.997c-.43.992-.868 2.036-1.312 3.132v.001a209.65 209.65 0 00-1.33 3.483 394.628 394.628 0 00-1.484 4.015.132.132 0 00.124.177h2.181l.049-.053a19.11 19.11 0 011.73-1.63v-.001a21.95 21.95 0 012.003-1.52l.001-.002h.002a22.446 22.446 0 012.065-1.302h.001l.001-.001c.25-.142.495-.274.737-.397l.468 1.335v.001c.208.586.41 1.165.605 1.738zm-2.403-6.583v.002c.189.476.377.96.565 1.453a18.478 18.478 0 00-2.178 1.188c-.728.457-1.45.953-2.168 1.489l.304-.867c.401-1.127.803-2.215 1.205-3.264a51.88 51.88 0 011.153-2.73c.388.873.761 1.783 1.119 2.729z" fill="#fff"/><path d="M65.521 11.156v-1.84a.132.132 0 00-.132-.133H54.902a.132.132 0 00-.132.132v1.841h4.262v11.775c0 .073.06.132.132.132h1.963c.073 0 .132-.06.132-.132V11.156h4.262zM45.147 22.894a5.256 5.256 0 01-2.012-1.475l-.001-.001c-.528-.648-.87-1.411-1.03-2.286a.165.165 0 01.138-.193l1.776-.28a.165.165 0 01.185.122c.216.84.66 1.49 1.334 1.962.684.468 1.49.704 2.426.704.607 0 1.15-.093 1.63-.278.485-.19.862-.458 1.138-.8.27-.335.407-.732.407-1.199 0-.29-.051-.527-.147-.718l-.002-.005a1.417 1.417 0 00-.39-.51l-.004-.005a2.401 2.401 0 00-.579-.38 4.492 4.492 0 00-.698-.26h-.002l-3.544-1.053a7.768 7.768 0 01-1.144-.444h-.002a4.255 4.255 0 01-1.004-.694l-.001-.001a3.2 3.2 0 01-.713-1.018c-.179-.406-.265-.877-.265-1.409 0-.854.22-1.59.669-2.202.45-.612 1.058-1.077 1.816-1.397.758-.319 1.607-.473 2.547-.466.952.006 1.808.177 2.565.516a4.868 4.868 0 011.897 1.438c.507.627.846 1.377 1.018 2.243a.165.165 0 01-.134.195l-1.825.318a.166.166 0 01-.19-.135 2.889 2.889 0 00-.612-1.38l-.002-.002a3.048 3.048 0 00-1.173-.898h-.002a3.84 3.84 0 00-1.565-.334 3.74 3.74 0 00-1.47.258c-.435.178-.775.423-1.025.733l-.001.002a1.57 1.57 0 00-.368 1.034c0 .39.111.692.322.92.228.239.507.432.842.579.354.145.699.265 1.033.36l2.645.762c.308.085.66.203 1.055.352.414.153.813.37 1.197.648.395.28.72.653.975 1.116.262.469.388 1.052.388 1.74 0 .692-.14 1.314-.424 1.862a3.864 3.864 0 01-1.158 1.37h-.002a5.385 5.385 0 01-1.711.818 7.278 7.278 0 01-2.074.286c-1.003 0-1.914-.17-2.729-.515z" fill="#fff"/></svg>
